img/svg/partners/partner-logo-6.svg

<svg width="129" height="129" viewBox="0 0 129 129" fill="none" xmlns="http://www.w3.org/2000/svg">
<g opacity="0.1">
<path opacity="0.1" d="M128.12 125.12V128.12H125.12" stroke="#20263C" stroke-miterlimit="10"/>
<path opacity="0.1" d="M119.36 128.12H6.87988" stroke="#20263C" stroke-miterlimit="10" stroke-dasharray="5.77 5.77"/>
<path opacity="0.1" d="M4 128.12H1V125.12" stroke="#20263C" stroke-miterlimit="10"/>
<path opacity="0.1" d="M1 119.36V6.87988" stroke="#20263C" stroke-miterlimit="10" stroke-dasharray="5.77 5.77"/>
<path opacity="0.1" d="M1 4V1H4" stroke="#20263C" stroke-miterlimit="10"/>
<path opacity="0.1" d="M9.77002 1H122.24" stroke="#20263C" stroke-miterlimit="10" stroke-dasharray="5.77 5.77"/>
<path opacity="0.1" d="M125.12 1H128.12V4" stroke="#20263C" stroke-miterlimit="10"/>
<path opacity="0.1" d="M128.12 9.77002V122.24" stroke="#20263C" stroke-miterlimit="10" stroke-dasharray="5.77 5.77"/>
</g>
<path d="M51.0807 37.3972C50.0821 38.0534 49.2506 38.9363 48.653 39.9746C48.0555 41.0129 47.7085 42.1778 47.6401 43.3756V50.1839C47.7085 51.3817 48.0555 52.5466 48.653 53.5849C49.2506 54.6233 50.0821 55.5061 51.0807 56.1623L58.1996 60.3823C60.0877 61.4795 61.6401 60.5793 61.6401 58.3848V35.3153C61.6401 33.1209 60.0877 32.2207 58.1996 33.3179L51.0807 37.3972Z" fill="#231F20"/>
<path d="M50.3391 57.6376C49.3055 57.1199 48.1634 56.8501 47.0051 56.8501C45.8468 56.8501 44.7047 57.1199 43.6711 57.6376L37.9809 60.8661C37.0113 61.4936 36.2039 62.3378 35.6236 63.3307C35.0434 64.3237 34.7065 65.4376 34.6401 66.583V74.4926C34.6401 76.5911 36.1476 77.452 37.9809 76.4028L57.2651 65.3724C59.0985 64.3232 59.0985 62.6148 57.2651 61.5655L50.3391 57.6376Z" fill="#231F20"/>
<path d="M76.1996 37.3972C77.1982 38.0534 78.0297 38.9363 78.6272 39.9746C79.2248 41.0129 79.5718 42.1778 79.6401 43.3756V50.1839C79.5718 51.3817 79.2248 52.5466 78.6272 53.5849C78.0297 54.6233 77.1982 55.5061 76.1996 56.1623L69.0667 60.3823C67.1786 61.4795 65.6401 60.5793 65.6401 58.3848V35.3153C65.6401 33.1209 67.1786 32.2207 69.0667 33.3179L76.1996 37.3972Z" fill="#231F20"/>
<path d="M76.292 57.6376C77.3693 57.1199 78.5596 56.8501 79.7668 56.8501C80.974 56.8501 82.1644 57.1199 83.2417 57.6376L89.1723 60.8661C90.1811 61.4943 91.0205 62.339 91.6228 63.332C92.2251 64.325 92.5736 65.4386 92.6401 66.583V74.4926C92.6401 76.5911 91.0831 77.452 89.1723 76.4028L69.0733 65.3724C67.1624 64.3232 67.1624 62.6148 69.0733 61.5655L76.292 57.6376Z" fill="#231F20"/>
<path d="M46.9459 87.0636C47.9801 87.5807 49.1228 87.8501 50.2817 87.8501C51.4407 87.8501 52.5834 87.5807 53.6176 87.0636L59.3111 83.8261C60.2798 83.1958 61.0855 82.3498 61.6637 81.356C62.2418 80.3621 62.5762 79.2481 62.6401 78.1034V70.2044C62.6401 68.1087 61.1455 67.249 59.3111 68.2968L40.0159 79.3124C38.1815 80.3602 38.1815 82.0663 40.0159 83.1141L46.9459 87.0636Z" fill="#231F20"/>
<path d="M63.6401 78.1099C63.7078 79.2518 64.0567 80.3628 64.6589 81.3536C65.2612 82.3445 66.0999 83.1876 67.1079 83.8154L73.0386 87.0641C74.1159 87.5809 75.3062 87.8501 76.5135 87.8501C77.7207 87.8501 78.911 87.5809 79.9883 87.0641L87.207 83.1039C89.1178 82.0568 89.1178 80.3518 87.207 79.3047L67.1079 68.2965C65.1971 67.2494 63.6401 68.1086 63.6401 70.2028V78.1099Z" fill="#231F20"/>
</svg>

<svg xmlns="http://www.w3.org/2000/svg" fill="none" viewBox="0 0 129 129"><g stroke="#20263C" stroke-miterlimit="10" opacity=".1"><path d="M128.12 125.12v3h-3" opacity=".1"/><path stroke-dasharray="5.77 5.77" d="M119.36 128.12H6.88" opacity=".1"/><path d="M4 128.12H1v-3" opacity=".1"/><path stroke-dasharray="5.77 5.77" d="M1 119.36V6.88" opacity=".1"/><path d="M1 4V1h3" opacity=".1"/><path stroke-dasharray="5.77 5.77" d="M9.77 1h112.47" opacity=".1"/><path d="M125.12 1h3v3" opacity=".1"/><path stroke-dasharray="5.77 5.77" d="M128.12 9.77v112.47" opacity=".1"/></g><path fill="#231F20" d="M51.08 37.397a7.649 7.649 0 0 0-2.427 2.578 7.7 7.7 0 0 0-1.013 3.4v6.809a7.7 7.7 0 0 0 1.013 3.4 7.648 7.648 0 0 0 2.428 2.578l7.119 4.22c1.888 1.098 3.44.197 3.44-1.997v-23.07c0-2.194-1.552-3.094-3.44-1.997l-7.12 4.08zM50.34 57.638a7.446 7.446 0 0 0-6.669 0l-5.69 3.228a7.362 7.362 0 0 0-2.357 2.465 7.281 7.281 0 0 0-.984 3.252v7.91c0 2.098 1.508 2.959 3.34 1.91l19.285-11.03c1.834-1.05 1.834-2.758 0-3.808l-6.926-3.927zM76.2 37.397a7.647 7.647 0 0 1 2.427 2.578 7.697 7.697 0 0 1 1.013 3.4v6.809a7.697 7.697 0 0 1-1.013 3.4 7.646 7.646 0 0 1-2.427 2.578l-7.133 4.22c-1.888 1.098-3.427.197-3.427-1.997v-23.07c0-2.194 1.539-3.094 3.427-1.997l7.133 4.08zM76.292 57.638a8.03 8.03 0 0 1 3.475-.788 8.03 8.03 0 0 1 3.475.788l5.93 3.228a7.487 7.487 0 0 1 2.45 2.466c.603.993.952 2.107 1.018 3.251v7.91c0 2.098-1.557 2.959-3.468 1.91l-20.099-11.03c-1.91-1.05-1.91-2.758 0-3.808l7.219-3.927zM46.946 87.064a7.46 7.46 0 0 0 6.672 0l5.693-3.238a7.37 7.37 0 0 0 2.353-2.47 7.275 7.275 0 0 0 .976-3.253v-7.899c0-2.095-1.495-2.955-3.329-1.907L40.016 79.312c-1.834 1.048-1.834 2.754 0 3.802l6.93 3.95zM63.64 78.11a7.044 7.044 0 0 0 1.019 3.244 7.494 7.494 0 0 0 2.449 2.461l5.93 3.25a8.042 8.042 0 0 0 3.475.785c1.208 0 2.398-.27 3.475-.786l7.219-3.96c1.91-1.047 1.91-2.752 0-3.8l-20.1-11.008c-1.91-1.047-3.467-.187-3.467 1.907v7.907z"/></svg>
